X:1
T:Far Out on the Desolate Billow
T:Far Out on the Desolate Billow
T:Friedrich Silcher (1789-1860)
T:Rossiter Worthington Raymond, 1880
T:Public Domain Courtesy of the Cyber Hymnal™
T:Public Domain Courtesy of the Cyber Hymnal™
C:Friedrich Silcher (1789-1860)
Z:Public Domain
Z:Courtesy of the Cyber Hymnal™
%%score ( 1 2 ) ( 3 4 )
L:1/8
Q:1/4=100
M:6/8
K:C
V:1 treble 
V:2 treble 
V:3 bass 
V:4 bass 
V:1
 [EG] | [EG]>[FA][EG] ([Ac][GB])[FA] | [EG]3 [DF]2 [DF] | [CE]2 ([CE]/[CE]/) ([B,D][A,C])[B,D] | %4
w: 1.~Far|out on the deso- * late|bil- low The|sail- or * sails * the|
w: 2.~Far|down in the earth’s * dark|bo- som The|min- er * mines * the|
w: 3.~Forth|in- to the dread- * ful|bat- tle The|stead- fast * sol- * dier|
w: 4.~Lord,|grant as we sail * life’s|o- cean, Or|delve in~its * mines * of|
 [CE]4 z [EG] | [EG]>[FA][EG] ([Ac][GB])[FA] | [EG]3 [DF]2 [DF] | %7
w: sea, A-|lone with the night~and * the|tem- pest, Where|
w: ore; Death|lurks in the dark * be-|hind him, And|
w: goes; No|friend, when he lies * a-|dy- ing, His|
w: woe, Or|fight in its terri- * ble|con- flict, This|
 [CE]2 ([CE]/[CE]/) ([EG][DF])[B,D] | C4 z [CE] | [B,D]>[CE][B,D] [B,G][B,D][DG] | %10
w: count- less * dan- * gers|be; Yet|nev- er a- lone is the|
w: hides in~the * rock * be-|fore. Yet|nev- er a- lone is the|
w: eyes to * kiss * and|close. Yet|nev- er a- lone is the|
w: com- fort * all * to|know, That|nev- er a- lone is the|
 [GB]3 [EA]2 [EA] | [DG]2 [DG] (^FG)[DA] | G3- G2 ||"^Refrain" [DG] | %14
w: Christ- ian, Who|lives by faith * and|prayer; *||
w: Christ- ian, Who|lives by faith * and|prayer; *|For|
w: Christ- ian, Who|lives by faith * and|prayer; *||
w: Christ- ian, Who|lives by faith * and|prayer; *||
 [EG]>[FA][EG] ([Ac][GB])[FA] | ([EG]2 [Ge]) [Fd]2 [Dd] | [Ec]2 [Ec] (BA)[FB] | [Ec]3- [Ec]2 |] %18
w: ||||
w: God is a friend * un-|fail- * ing, And|God is ev- * ’ry-|where. *|
w: ||||
w: ||||
V:2
 x | x6 | x6 | x6 | x6 | x6 | x6 | x6 | C4 x2 | x6 | x6 | x3 D2 x | (D2 E FE) || x | x6 | x6 | %16
 x3 F2 x | x5 |] %18
V:3
 [C,C] | [C,C]>[C,C][C,C] [C,-A,][C,B,][C,C] | [C,C]3 [F,A,]2 [F,A,] | %3
 G,2 (G,/G,/) [G,,G,]2 [G,,G,] | [C,G,]4 z [C,C] | [C,C]>[C,C][C,C] (A,B,)[C,C] | %6
 [C,C]3 [F,A,]2 [F,A,] | G,2 G,/G,/ [G,,G,]2 [G,,F,] | [C,E,]4 z [C,G,] | G,>G,G, G,G,[G,B,] | %10
 [G,D]3 [C,C]2 [C,C] | [D,B,]2 [D,B,] (A,B,)[D,C] | (B,2 C DC) || [G,B,] | %14
 [C,C]>[C,D][C,D] (A,B,)[C,C] | (C2 G,) [F,A,]2 [F,A,] | G,2 G, [G,D]2 [G,,G,] | %17
 [C,G,]3- [C,G,]2 |] %18
V:4
 x | x6 | x6 | G,2 G,/G,/ x3 | x6 | x3 C,2 x | x6 | G,2 G,/G,/ x3 | x6 | G,>G,G, G,G, x | x6 | %11
 x3 D,2 x | G,3- G,2 || x | x3 C,2 x | C,3 x3 | G,2 G, x3 | x5 |] %18

